src/assets/delete-account-bin-icon.svg

<svg width="20" height="22" viewBox="0 0 20 22" fill="none" xmlns="http://www.w3.org/2000/svg">
<g clip-path="url(#clip0_258_295)">
<path d="M1 5H19M17 5V19C17 19.5304 16.7893 20.0391 16.4142 20.4142C16.0391 20.7893 15.5304 21 15 21H5C4.46957 21 3.96086 20.7893 3.58579 20.4142C3.21071 20.0391 3 19.5304 3 19V5M6 5V3C6 2.46957 6.21071 1.96086 6.58579 1.58579C6.96086 1.21071 7.46957 1 8 1H12C12.5304 1 13.0391 1.21071 13.4142 1.58579C13.7893 1.96086 14 2.46957 14 3V5M8 10V16M12 10V16" stroke="#D83025" stroke-width="2" stroke-linecap="round" stroke-linejoin="round"/>
</g>
<defs>
<clipPath id="clip0_258_295">
<rect width="20" height="22" fill="white"/>
</clipPath>
</defs>
</svg>

<svg width="20" height="22" fill="none" xmlns="http://www.w3.org/2000/svg"><g clip-path="url(#clip0_258_295)"><path d="M1 5h18m-2 0v14a2 2 0 01-2 2H5a2 2 0 01-2-2V5m3 0V3a2 2 0 012-2h4a2 2 0 012 2v2m-6 5v6m4-6v6" stroke="#D83025" stroke-width="2" stroke-linecap="round" stroke-linejoin="round"/></g><defs><clipPath id="clip0_258_295"><path fill="#fff" d="M0 0h20v22H0z"/></clipPath></defs></svg>
